src/client/web-contents/img/common/badge/badge_status_04.svg

<svg height="32" viewBox="0 0 64 32" width="64" xmlns="http://www.w3.org/2000/svg"><g fill="none" fill-rule="evenodd"><rect fill="#f76252" height="32" rx="4" width="64"/><path d="m21.26 7v6.96h2.68v1.72h-2.68v9.14h-2.06v-17.82zm-3.18 11.92-1.22 1.54c-1.52-.98-3.6-3.26-4.24-5.22-.62 2.12-2.4 4.36-4.36 5.54l-1.26-1.5c2.78-1.8 4.54-4.74 4.54-8.14v-2.6h2.1v2.48c0 3.42 1.82 6.26 4.44 7.9zm19.88-8.32c0 1.16-.74 2.1-2.1 2.7v2.3h3.96v1.64h-16.1v-1.64h3.9v-2.34c-1.32-.6-2.02-1.52-2.02-2.66 0-1.98 2.24-3.36 6.16-3.36 3.96 0 6.2 1.38 6.2 3.36zm0 10.94c0 2.06-2.28 3.26-6.18 3.26s-6.18-1.2-6.18-3.26c0-2.02 2.28-3.24 6.16-3.24 3.92 0 6.2 1.22 6.2 3.24zm-2.12-10.94c0-1.1-1.52-1.8-4.08-1.8-2.54 0-4.06.7-4.06 1.8 0 1.12 1.52 1.8 4.06 1.8 2.5 0 4.08-.68 4.08-1.8zm0 10.96c0-1.04-1.6-1.64-4.08-1.64s-4.06.6-4.06 1.64c0 1.06 1.58 1.6 4.06 1.6 2.5 0 4.08-.54 4.08-1.6zm-4.06-7.58c-.76 0-1.48-.02-2.12-.14v1.76h4.16v-1.74c-.62.1-1.3.12-2.04.12zm22.48 7.58c0 2-2.28 3.26-6.18 3.26s-6.18-1.26-6.18-3.26c0-1.8 1.86-3 5.12-3.22v-1.52h-7v-1.64h16.1v1.64h-7.06v1.52c3.3.18 5.2 1.42 5.2 3.22zm1.02-8.94-.9 1.6c-2.66-.32-5.34-1.82-6.3-3.54-.86 1.84-3.36 3.22-6.3 3.54l-.9-1.6c2.82-.2 5.48-1.46 6.04-3.44h-5.24v-1.66h12.82v1.66h-5.22c.64 1.98 3.6 3.28 6 3.44zm-3.14 8.94c0-1.04-1.6-1.62-4.08-1.62s-4.06.58-4.06 1.62c0 1.08 1.58 1.6 4.06 1.6 2.5 0 4.08-.52 4.08-1.6z" fill="#fff"/></g></svg>

<?xml version="1.0" encoding="UTF-8" standalone="no"?>
<svg width="64px" height="32px" viewBox="0 0 64 32" version="1.1" xmlns="http://www.w3.org/2000/svg" xmlns:xlink="http://www.w3.org/1999/xlink">
    <!-- Generator: Sketch 50.2 (55047) - http://www.bohemiancoding.com/sketch -->
    <title>graphic_badge_status_04</title>
    <desc>Created with Sketch.</desc>
    <defs></defs>
    <g id="Icon_Badge_Graphic" stroke="none" stroke-width="1" fill="none" fill-rule="evenodd">
        <g id="##Element/Badge/Status04">
            <rect id="Rectangle-2" fill="#F76252" x="0" y="0" width="64" height="32" rx="4"></rect>
            <path d="M21.26,7 L21.26,13.96 L23.94,13.96 L23.94,15.68 L21.26,15.68 L21.26,24.82 L19.2,24.82 L19.2,7 L21.26,7 Z M18.08,18.92 L16.86,20.46 C15.34,19.48 13.26,17.2 12.62,15.24 C12,17.36 10.22,19.6 8.26,20.78 L7,19.28 C9.78,17.48 11.54,14.54 11.54,11.14 L11.54,8.54 L13.64,8.54 L13.64,11.02 C13.64,14.44 15.46,17.28 18.08,18.92 Z M37.96,10.6 C37.96,11.76 37.22,12.7 35.86,13.3 L35.86,15.6 L39.82,15.6 L39.82,17.24 L23.72,17.24 L23.72,15.6 L27.62,15.6 L27.62,13.26 C26.3,12.66 25.6,11.74 25.6,10.6 C25.6,8.62 27.84,7.24 31.76,7.24 C35.72,7.24 37.96,8.62 37.96,10.6 Z M37.96,21.54 C37.96,23.6 35.68,24.8 31.78,24.8 C27.88,24.8 25.6,23.6 25.6,21.54 C25.6,19.52 27.88,18.3 31.76,18.3 C35.68,18.3 37.96,19.52 37.96,21.54 Z M35.84,10.6 C35.84,9.5 34.32,8.8 31.76,8.8 C29.22,8.8 27.7,9.5 27.7,10.6 C27.7,11.72 29.22,12.4 31.76,12.4 C34.26,12.4 35.84,11.72 35.84,10.6 Z M35.84,21.56 C35.84,20.52 34.24,19.92 31.76,19.92 C29.28,19.92 27.7,20.52 27.7,21.56 C27.7,22.62 29.28,23.16 31.76,23.16 C34.26,23.16 35.84,22.62 35.84,21.56 Z M31.78,13.98 C31.02,13.98 30.3,13.96 29.66,13.84 L29.66,15.6 L33.82,15.6 L33.82,13.86 C33.2,13.96 32.52,13.98 31.78,13.98 Z M54.26,21.56 C54.26,23.56 51.98,24.82 48.08,24.82 C44.18,24.82 41.9,23.56 41.9,21.56 C41.9,19.76 43.76,18.56 47.02,18.34 L47.02,16.82 L40.02,16.82 L40.02,15.18 L56.12,15.18 L56.12,16.82 L49.06,16.82 L49.06,18.34 C52.36,18.52 54.26,19.76 54.26,21.56 Z M55.28,12.62 L54.38,14.22 C51.72,13.9 49.04,12.4 48.08,10.68 C47.22,12.52 44.72,13.9 41.78,14.22 L40.88,12.62 C43.7,12.42 46.36,11.16 46.92,9.18 L41.68,9.18 L41.68,7.52 L54.5,7.52 L54.5,9.18 L49.28,9.18 C49.92,11.16 52.88,12.46 55.28,12.62 Z M52.14,21.56 C52.14,20.52 50.54,19.94 48.06,19.94 C45.58,19.94 44,20.52 44,21.56 C44,22.64 45.58,23.16 48.06,23.16 C50.56,23.16 52.14,22.64 52.14,21.56 Z" id="사용중" fill="#FFFFFF"></path>
        </g>
    </g>
</svg>
